icons/animal_bat.svg

<svg width="48" height="48" viewBox="0 0 48 48" fill="none" xmlns="http://www.w3.org/2000/svg">
<path fill-rule="evenodd" clip-rule="evenodd" d="M30.4448 20.6639C32.165 20.2678 33.7247 19.6273 34.8289 18.2557C35.86 16.975 36.3012 15.2884 36.491 13.2654C37.9709 13.7215 39.1123 14.7653 39.9984 16.3935C41.065 18.3534 41.7287 21.137 41.9327 24.6164C35.9743 24.0837 31.8015 27.3671 30.7561 31.4H25.8025L24 34.7647L22.1975 31.4H17.2439C16.1985 27.3671 12.0257 24.0837 6.06728 24.6164C6.27127 21.137 6.93499 18.3534 8.0016 16.3935C8.88769 14.7653 10.0291 13.7215 11.509 13.2654C11.6988 15.2884 12.14 16.975 13.1711 18.2557C14.2719 19.6231 15.8254 20.2639 17.5392 20.6602L17.2831 18.5258C14.3667 17.6681 13.5137 16.0136 13.3878 11C13.2246 11 13.0637 11.0041 12.905 11.0121C12.3758 11.039 11.872 11.1105 11.3931 11.2245C6.69845 12.3423 4.39855 17.5486 4.0477 24.9326C4.01579 25.6042 4 26.2938 4 27C4.69598 26.822 5.36344 26.7003 6.00153 26.6292C12.0863 25.951 15.5 29.8702 15.5 33.4H21L24 39L27 33.4H32.5C32.5 29.8702 35.9137 25.951 41.9985 26.6292C42.6366 26.7003 43.304 26.822 44 27C44 26.2938 43.9842 25.6042 43.9523 24.9326C43.6014 17.5486 41.3015 12.3423 36.6069 11.2245C36.128 11.1105 35.6242 11.039 35.095 11.0121C34.9363 11.0041 34.7754 11 34.6122 11C34.4865 16.0058 33.636 17.6629 30.7304 18.5218L30.4448 20.6639Z" fill="black"/>
<path fill-rule="evenodd" clip-rule="evenodd" d="M18.8896 12.0061C19.4385 11.9451 19.9329 12.3407 19.9939 12.8896L20.9939 21.8896C21.0549 22.4385 20.6593 22.9329 20.1104 22.9939C19.5615 23.0549 19.0671 22.6593 19.0061 22.1104L18.0061 13.1104C17.9451 12.5615 18.3407 12.0671 18.8896 12.0061Z" fill="black"/>
<path fill-rule="evenodd" clip-rule="evenodd" d="M29.1104 12.0061C28.5615 11.9451 28.0671 12.3407 28.0061 12.8896L27.0061 21.8896C26.9451 22.4385 27.3407 22.9329 27.8896 22.9939C28.4385 23.0549 28.9329 22.6593 28.9939 22.1104L29.9939 13.1104C30.0549 12.5615 29.6593 12.0671 29.1104 12.0061Z" fill="black"/>
<path fill-rule="evenodd" clip-rule="evenodd" d="M24.0046 16.0001C22.9774 16.0055 21.9005 16.2893 20.3857 16.9226L19.6143 15.0774C21.2267 14.4032 22.5854 14.0076 23.9941 14.0001C25.4075 13.9926 26.7714 14.3762 28.3984 15.0828L27.6016 16.9172C26.0997 16.2649 25.0272 15.9947 24.0046 16.0001Z" fill="black"/>
</svg>

<svg
  xmlns="http://www.w3.org/2000/svg"
  width="24"
  height="24"
  viewBox="0 0 24 24"
  fill="none"
  stroke="currentColor"
  stroke-width="2"
  stroke-linecap="round"
  stroke-linejoin="round"
>
  <path
    fill-rule="evenodd"
    d="M30.445 20.664c1.72-.396 3.28-1.037 4.384-2.408 1.031-1.281 1.472-2.968 1.662-4.99 1.48.456 2.621 1.5 3.507 3.127 1.067 1.96 1.73 4.744 1.935 8.223-5.959-.532-10.131 2.751-11.177 6.784h-4.954L24 34.765 22.198 31.4h-4.954c-1.046-4.033-5.218-7.316-11.177-6.784.204-3.479.868-6.263 1.935-8.222.886-1.629 2.027-2.672 3.507-3.129.19 2.023.631 3.71 1.662 4.99 1.1 1.368 2.654 2.009 4.368 2.405l-.256-2.134c-2.916-.858-3.77-2.512-3.895-7.526q-.245 0-.483.012a8.4 8.4 0 0 0-1.512.213C6.698 12.342 4.4 17.549 4.048 24.933A44 44 0 0 0 4 27q1.044-.266 2.002-.37c6.084-.679 9.498 3.24 9.498 6.77H21l3 5.6 3-5.6h5.5c0-3.53 3.414-7.449 9.499-6.77q.957.104 2.001.37 0-1.06-.048-2.067c-.35-7.384-2.65-12.59-7.345-13.708a8.4 8.4 0 0 0-1.512-.213 10 10 0 0 0-.483-.012c-.126 5.006-.976 6.663-3.882 7.522z"
    clip-rule="evenodd"
  />
  <path
    fill-rule="evenodd"
    d="M18.89 12.006a1 1 0 0 1 1.104.884l1 9a1 1 0 0 1-1.988.22l-1-9a1 1 0 0 1 .884-1.104"
    clip-rule="evenodd"
  />
  <path
    fill-rule="evenodd"
    d="M29.11 12.006a1 1 0 0 0-1.104.884l-1 9a1 1 0 0 0 1.988.22l1-9a1 1 0 0 0-.884-1.104"
    clip-rule="evenodd"
  />
  <path
    fill-rule="evenodd"
    d="M24.005 16c-1.028.006-2.104.29-3.62.923l-.77-1.846c1.612-.674 2.97-1.07 4.38-1.077 1.412-.007 2.776.376 4.403 1.083l-.796 1.834c-1.502-.652-2.575-.922-3.597-.917"
    clip-rule="evenodd"
  />
</svg>
